Numix-Light/16/status/indicator-keyboard-Bs.svg

<?xml version="1.0" encoding="UTF-8" standalone="no"?>
<svg
   xmlns:dc="http://purl.org/dc/elements/1.1/"
   xmlns:cc="http://creativecommons.org/ns#"
   xmlns:rdf="http://www.w3.org/1999/02/22-rdf-syntax-ns#"
   xmlns:svg="http://www.w3.org/2000/svg"
   xmlns="http://www.w3.org/2000/svg"
   xmlns:sodipodi="http://sodipodi.sourceforge.net/DTD/sodipodi-0.dtd"
   xmlns:inkscape="http://www.inkscape.org/namespaces/inkscape"
   viewBox="0 0 16 16"
   id="svg2"
   version="1.1"
   inkscape:version="0.91 r13725"
   sodipodi:docname="indicator-keyboard-Bs.svg">
  <metadata
     id="metadata13">
    <rdf:RDF>
      <cc:Work
         rdf:about="">
        <dc:format>image/svg+xml</dc:format>
        <dc:type
           rdf:resource="http://purl.org/dc/dcmitype/StillImage" />
      </cc:Work>
    </rdf:RDF>
  </metadata>
  <defs
     id="defs11" />
  <sodipodi:namedview
     pagecolor="#ffffff"
     bordercolor="#666666"
     borderopacity="1"
     objecttolerance="10"
     gridtolerance="10"
     guidetolerance="10"
     inkscape:pageopacity="0"
     inkscape:pageshadow="2"
     inkscape:window-width="640"
     inkscape:window-height="480"
     id="namedview9"
     showgrid="false"
     inkscape:zoom="14.75"
     inkscape:cx="8"
     inkscape:cy="8"
     inkscape:window-x="65"
     inkscape:window-y="24"
     inkscape:window-maximized="0"
     inkscape:current-layer="svg2" />
  <path
     style="fill:#353535;fill-opacity:1"
     d="M 1.5996094 0 C 0.71320937 2.9605947e-16 0 0.71320937 0 1.5996094 L 0 14.400391 C 2.9605947e-16 15.286791 0.71320937 16 1.5996094 16 L 14.400391 16 C 15.286791 16 16 15.286791 16 14.400391 L 16 1.5996094 C 16 0.71320937 15.286791 0 14.400391 0 L 1.5996094 0 z M 5.3769531 4.8007812 C 5.7129531 4.8007812 6.0320313 4.8268594 6.3320312 4.8808594 C 6.6380312 4.9348594 6.9048125 5.0263438 7.1328125 5.1523438 C 7.3608125 5.2783437 7.539875 5.44625 7.671875 5.65625 C 7.809875 5.86025 7.8789063 6.1139219 7.8789062 6.4199219 C 7.8789062 6.7559219 7.7911875 7.0451562 7.6171875 7.2851562 C 7.4491875 7.5191563 7.2215938 7.6795312 6.9335938 7.7695312 C 7.1135937 7.8115312 7.2796875 7.8731719 7.4296875 7.9511719 C 7.5796875 8.0291719 7.7102188 8.1298594 7.8242188 8.2558594 C 7.9382188 8.3758594 8.0259375 8.5270313 8.0859375 8.7070312 C 8.1519375 8.8810313 8.1855469 9.0899375 8.1855469 9.3359375 C 8.1855469 9.9239373 7.9504219 10.373547 7.4824219 10.685547 C 7.0144219 10.991547 6.2924531 11.144531 5.3144531 11.144531 C 5.2124531 11.144531 5.0930781 11.138953 4.9550781 11.126953 C 4.8230781 11.120953 4.6850156 11.109797 4.5410156 11.091797 C 4.4030156 11.079797 4.2705312 11.064875 4.1445312 11.046875 C 4.0185312 11.022875 3.9103125 10.998609 3.8203125 10.974609 L 3.8203125 4.9707031 C 3.9283125 4.9407031 4.0476875 4.9183906 4.1796875 4.9003906 C 4.3116875 4.8763906 4.4479375 4.8577031 4.5859375 4.8457031 C 4.7299375 4.8277031 4.868 4.8145937 5 4.8085938 C 5.138 4.8025937 5.2629531 4.8007812 5.3769531 4.8007812 z M 5.3769531 5.3222656 C 5.1549531 5.3222656 4.9665469 5.3278437 4.8105469 5.3398438 C 4.6605469 5.3518437 4.5336406 5.3667656 4.4316406 5.3847656 L 4.4316406 7.5820312 L 5.6210938 7.5820312 C 5.8430937 7.5820312 6.052 7.5671094 6.25 7.5371094 C 6.448 7.5011094 6.6196719 7.4414219 6.7636719 7.3574219 C 6.9136719 7.2674219 7.0292812 7.1498594 7.1132812 7.0058594 C 7.1972812 6.8558594 7.2402344 6.6674531 7.2402344 6.4394531 C 7.2402344 6.2354531 7.1954687 6.0637812 7.1054688 5.9257812 C 7.0154687 5.7817812 6.88675 5.6642188 6.71875 5.5742188 C 6.55675 5.4842188 6.3608125 5.4207656 6.1328125 5.3847656 C 5.9048125 5.3427656 5.6529531 5.3222656 5.3769531 5.3222656 z M 10.722656 6.3300781 C 11.040656 6.3300781 11.299906 6.3581094 11.503906 6.4121094 C 11.713906 6.4661094 11.861312 6.5126875 11.945312 6.5546875 L 11.810547 7.078125 C 11.738547 7.042125 11.615406 6.9935937 11.441406 6.9335938 C 11.273406 6.8735938 11.025312 6.84375 10.695312 6.84375 C 10.563312 6.84375 10.436406 6.8586719 10.316406 6.8886719 C 10.202406 6.9126719 10.101719 6.9536719 10.011719 7.0136719 C 9.9217189 7.0676719 9.8489219 7.1404687 9.7949219 7.2304688 C 9.7409219 7.3144687 9.7148438 7.4189219 9.7148438 7.5449219 C 9.7148438 7.6709219 9.7371563 7.7791406 9.7851562 7.8691406 C 9.8331562 7.9591406 9.9021875 8.0412812 9.9921875 8.1132812 C 10.088187 8.1792812 10.201984 8.2407813 10.333984 8.3007812 C 10.471984 8.3607812 10.628734 8.428 10.802734 8.5 C 10.982734 8.572 11.154406 8.6466094 11.316406 8.7246094 C 11.484406 8.7966094 11.631813 8.8861406 11.757812 8.9941406 C 11.883812 9.0961406 11.9845 9.2230469 12.0625 9.3730469 C 12.1405 9.5170469 12.179688 9.699875 12.179688 9.921875 C 12.179688 10.341875 12.021125 10.659 11.703125 10.875 C 11.391125 11.091 10.962016 11.199219 10.416016 11.199219 C 10.008016 11.199219 9.6964688 11.163797 9.4804688 11.091797 C 9.2644688 11.025797 9.1208281 10.975453 9.0488281 10.939453 L 9.2011719 10.408203 C 9.2191719 10.420203 9.2583594 10.440703 9.3183594 10.470703 C 9.3783594 10.494703 9.4585469 10.524547 9.5605469 10.560547 C 9.6625469 10.590547 9.7819219 10.616625 9.9199219 10.640625 C 10.063922 10.664625 10.230016 10.677734 10.416016 10.677734 C 10.752016 10.677734 11.028141 10.623625 11.244141 10.515625 C 11.466141 10.401625 11.576172 10.213219 11.576172 9.9492188 C 11.576172 9.8232188 11.555672 9.715 11.513672 9.625 C 11.477672 9.535 11.414219 9.4528594 11.324219 9.3808594 C 11.234219 9.3088594 11.114844 9.2398281 10.964844 9.1738281 C 10.820844 9.1078281 10.641781 9.0314063 10.425781 8.9414062 C 10.251781 8.8694062 10.085687 8.7966094 9.9296875 8.7246094 C 9.7736875 8.6466094 9.635625 8.5588906 9.515625 8.4628906 C 9.395625 8.3608906 9.3005156 8.2415156 9.2285156 8.1035156 C 9.1565156 7.9655156 9.1191406 7.7976094 9.1191406 7.5996094 C 9.1191406 7.2216094 9.2609688 6.9156406 9.5429688 6.6816406 C 9.8309688 6.4476406 10.224656 6.3300781 10.722656 6.3300781 z M 4.4316406 8.1035156 L 4.4316406 10.560547 C 4.5216406 10.572547 4.6578906 10.587469 4.8378906 10.605469 C 5.0178906 10.617469 5.2007187 10.623047 5.3867188 10.623047 C 5.6627188 10.623047 5.9295 10.606313 6.1875 10.570312 C 6.4515 10.534312 6.6828594 10.467094 6.8808594 10.371094 C 7.0788594 10.275094 7.2374219 10.142609 7.3574219 9.9746094 C 7.4774219 9.8066094 7.5371094 9.592125 7.5371094 9.328125 C 7.5371094 9.088125 7.4941562 8.890375 7.4101562 8.734375 C 7.3261563 8.572375 7.2067812 8.4454687 7.0507812 8.3554688 C 6.8947813 8.2594688 6.7026094 8.1942031 6.4746094 8.1582031 C 6.2526094 8.1222031 6.0045156 8.1035156 5.7285156 8.1035156 L 4.4316406 8.1035156 z "
     id="path4" />
</svg>

<svg xmlns="http://www.w3.org/2000/svg" viewBox="0 0 16 16">
 <path d="m 1.6 0 c -0.886 0 -1.6 0.713 -1.6 1.6 l 0 12.801 c 0 0.886 0.713 1.6 1.6 1.6 l 12.801 0 c 0.886 0 1.6 -0.713 1.6 -1.6 l 0 -12.801 c 0 -0.886 -0.713 -1.6 -1.6 -1.6 l -12.801 0 z m 3.777 4.801 c 0.336 0 0.655 0.026 0.955 0.08 c 0.306 0.054 0.573 0.145 0.801 0.271 c 0.228 0.126 0.407 0.294 0.539 0.504 c 0.138 0.204 0.207 0.458 0.207 0.764 c 0 0.336 -0.088 0.625 -0.262 0.865 c -0.168 0.234 -0.396 0.394 -0.684 0.484 c 0.18 0.042 0.346 0.104 0.496 0.182 c 0.15 0.078 0.281 0.179 0.395 0.305 c 0.114 0.12 0.202 0.271 0.262 0.451 c 0.066 0.174 0.1 0.383 0.1 0.629 c 0 0.588 -0.235 1.038 -0.703 1.35 c -0.468 0.306 -1.19 0.459 -2.168 0.459 c -0.102 0 -0.221 -0.006 -0.359 -0.018 c -0.132 -0.006 -0.27 -0.017 -0.414 -0.035 c -0.138 -0.012 -0.27 -0.027 -0.396 -0.045 c -0.126 -0.024 -0.234 -0.048 -0.324 -0.072 l 0 -6 c 0.108 -0.03 0.227 -0.052 0.359 -0.07 c 0.132 -0.024 0.268 -0.043 0.406 -0.055 c 0.144 -0.018 0.282 -0.031 0.414 -0.037 c 0.138 -0.006 0.263 -0.008 0.377 -0.008 z m 0 0.521 c -0.222 0 -0.41 0.006 -0.566 0.018 c -0.15 0.012 -0.277 0.027 -0.379 0.045 l 0 2.197 l 1.189 0 c 0.222 0 0.431 -0.015 0.629 -0.045 c 0.198 -0.036 0.37 -0.096 0.514 -0.18 c 0.15 -0.09 0.266 -0.208 0.35 -0.352 c 0.084 -0.15 0.127 -0.338 0.127 -0.566 c 0 -0.204 -0.045 -0.376 -0.135 -0.514 c -0.09 -0.144 -0.219 -0.262 -0.387 -0.352 c -0.162 -0.09 -0.358 -0.153 -0.586 -0.189 c -0.228 -0.042 -0.48 -0.063 -0.756 -0.063 z m 5.346 1.01 c 0.318 0 0.577 0.028 0.781 0.082 c 0.21 0.054 0.357 0.101 0.441 0.143 l -0.135 0.523 c -0.072 -0.036 -0.195 -0.085 -0.369 -0.145 c -0.168 -0.06 -0.416 -0.09 -0.746 -0.09 c -0.132 0 -0.259 0.015 -0.379 0.045 c -0.114 0.024 -0.215 0.065 -0.305 0.125 c -0.09 0.054 -0.163 0.127 -0.217 0.217 c -0.054 0.084 -0.08 0.188 -0.08 0.314 c 0 0.126 0.022 0.234 0.07 0.324 c 0.048 0.09 0.117 0.172 0.207 0.244 c 0.096 0.066 0.21 0.128 0.342 0.188 c 0.138 0.06 0.295 0.127 0.469 0.199 c 0.18 0.072 0.352 0.147 0.514 0.225 c 0.168 0.072 0.315 0.162 0.441 0.27 c 0.126 0.102 0.227 0.229 0.305 0.379 c 0.078 0.144 0.117 0.327 0.117 0.549 c 0 0.42 -0.159 0.737 -0.477 0.953 c -0.312 0.216 -0.741 0.324 -1.287 0.324 c -0.408 0 -0.72 -0.035 -0.936 -0.107 c -0.216 -0.066 -0.36 -0.116 -0.432 -0.152 l 0.152 -0.531 c 0.018 0.012 0.057 0.032 0.117 0.063 c 0.06 0.024 0.14 0.054 0.242 0.09 c 0.102 0.03 0.221 0.056 0.359 0.08 c 0.144 0.024 0.31 0.037 0.496 0.037 c 0.336 0 0.612 -0.054 0.828 -0.162 c 0.222 -0.114 0.332 -0.302 0.332 -0.566 c 0 -0.126 -0.021 -0.234 -0.063 -0.324 c -0.036 -0.09 -0.099 -0.172 -0.189 -0.244 c -0.09 -0.072 -0.209 -0.141 -0.359 -0.207 c -0.144 -0.066 -0.323 -0.142 -0.539 -0.232 c -0.174 -0.072 -0.34 -0.145 -0.496 -0.217 c -0.156 -0.078 -0.294 -0.166 -0.414 -0.262 c -0.12 -0.102 -0.215 -0.221 -0.287 -0.359 c -0.072 -0.138 -0.109 -0.306 -0.109 -0.504 c 0 -0.378 0.142 -0.684 0.424 -0.918 c 0.288 -0.234 0.682 -0.352 1.18 -0.352 z m -6.291 1.773 l 0 2.457 c 0.09 0.012 0.226 0.027 0.406 0.045 c 0.18 0.012 0.363 0.018 0.549 0.018 c 0.276 0 0.543 -0.017 0.801 -0.053 c 0.264 -0.036 0.495 -0.103 0.693 -0.199 c 0.198 -0.096 0.357 -0.228 0.477 -0.396 c 0.12 -0.168 0.18 -0.382 0.18 -0.646 c 0 -0.24 -0.043 -0.438 -0.127 -0.594 c -0.084 -0.162 -0.203 -0.289 -0.359 -0.379 c -0.156 -0.096 -0.348 -0.161 -0.576 -0.197 c -0.222 -0.036 -0.47 -0.055 -0.746 -0.055 l -1.297 0 z" style="fill:#353535;fill-opacity:1"/>
</svg>
